X:21200 
T:WHEN YOU GO HOME 
B:DMI.0334
Z:Nordberg/Black
R:jig
%Q:1/4=160
M:6/8
L:1/8
K:G
"D modal"
G|FDE F2d|cAA BAG|FDE F2d|cAF GAG|
FDE F2d|cAB cde|fef ded|cAF G2:|
B|cAA fed|cAG A2B|cAA fed|cAF G2B|
cAA fed|cAB cde|1 "thru"fef ded|cAF G2:|
[2 "final" fef dCA|GFE HD3|

%%%

